assets/lib/svg/flags/4x3/pt-30.svg

<svg id="flag-icons-pt-30" class="fi fi-pt-30" viewBox="0 0 640 480" xmlns="http://www.w3.org/2000/svg" width="640" height="480">
  <metadata id="flag-icons">
    <name>Madeira</name>
    <code>pt-30</code>
    <iso>true</iso>
    <type>Place</type>
    <capital>Funchal</capital>
    <continent>Europe</continent>
  </metadata>
  <defs>
    <clipPath id="b" clipPathUnits="userSpaceOnUse">
      <path d="M0 0h95.999v72H0z" style="fill:#00f;fill-rule:evenodd;stroke-width:.999999"/>
    </clipPath>
    <clipPath id="a" clipPathUnits="userSpaceOnUse">
      <path d="M0 0h95.999v72H0z" style="fill:#00f;fill-rule:evenodd;stroke-width:.999999"/>
    </clipPath>
  </defs>
  <g clip-path="url(#a)" style="stroke-width:.274921" transform="scale(6.6667)">
    <path fill="#263e78" d="M0 0h180v129H0" style="stroke-width:.515482" transform="scale(.53333 .55814)"/>
    <path fill="gold" d="M60 0h60v129H60" style="stroke-width:.515482" transform="scale(.53333 .55814)"/>
  </g>
  <g clip-path="url(#b)" style="stroke-width:.281242" transform="scale(6.6667)">
    <path fill="#da291c" d="m90 48 12-12H78m0 48h24L90 72m12-12 12 12V48m-48 0v24l12-12m-6 6h36V54H72m12-12v36h12V42" style="stroke-width:.527333" transform="translate(0 4)scale(.53333)"/>
    <path stroke="#fff" stroke-width=".6" d="M48 26.4v19.2m9.6-9.6H38.4"/>
  </g>
</svg>

<?xml version="1.0" encoding="UTF-8" standalone="no"?>
<svg
   width="640"
   height="480"
   viewBox="0 0 96 72"
   version="1.1"
   id="svg18404"
   sodipodi:docname="pt-md.svg"
   inkscape:version="1.2.2 (b0a84865, 2022-12-01)"
   xmlns:inkscape="http://www.inkscape.org/namespaces/inkscape"
   xmlns:sodipodi="http://sodipodi.sourceforge.net/DTD/sodipodi-0.dtd"
   xmlns="http://www.w3.org/2000/svg"
   xmlns:svg="http://www.w3.org/2000/svg">
  <defs
     id="defs18408" />
  <sodipodi:namedview
     id="namedview18406"
     pagecolor="#ffffff"
     bordercolor="#666666"
     borderopacity="1.0"
     inkscape:showpageshadow="2"
     inkscape:pageopacity="0.0"
     inkscape:pagecheckerboard="0"
     inkscape:deskcolor="#d1d1d1"
     showgrid="false"
     inkscape:zoom="1.2479167"
     inkscape:cx="313.72287"
     inkscape:cy="230.38397"
     inkscape:window-width="1440"
     inkscape:window-height="819"
     inkscape:window-x="0"
     inkscape:window-y="25"
     inkscape:window-maximized="0"
     inkscape:current-layer="svg18404" />
  <g
     id="g18539"
     style="stroke-width:1.83286"
     transform="scale(0.53333333,0.55813954)">
    <path
       fill="#263e78"
       d="M 0,0 H 180 V 129 H 0"
       id="path18396"
       style="stroke-width:3.43661" />
    <path
       fill="#ffd700"
       d="m 60,0 h 60 V 129 H 60"
       id="path18398"
       style="stroke-width:3.43661" />
  </g>
  <g
     id="g18543"
     style="stroke-width:1.875"
     transform="matrix(0.53333333,0,0,0.53333333,0,4.0000005)">
    <path
       fill="#da291c"
       d="M 90,48 102,36 H 78 m 0,48 h 24 L 90,72 m 12,-12 12,12 V 48 M 66,48 V 72 L 78,60 m -6,6 h 36 V 54 H 72 M 84,42 V 78 H 96 V 42"
       id="path18400"
       style="stroke-width:3.51562" />
    <path
       stroke="#ffffff"
       stroke-width="7.5"
       d="M 90,42 V 78 M 108,60 H 72"
       id="path18402" />
  </g>
</svg>
